X: 21
T: Missa Princesse d'amourettes &mdash; Gloria
C: Gaspar van Weerbeke
%%abc-version 2.0
%%abcx-abcm2ps-target-version 5.9.1 (29 Sep 2008)
%%abc-creator hum2abc beta
%%abcx-conversion-date 2022/03/06 13:05:55
%%abc-copyright Copyright 2014, Pavanello, Agnese
%%abc-edited-by Mair-Gruber, Roland
%%humdrum-veritas 3575947985
%%humdrum-veritas-data 2365742747
%%linebreak <none>
%%barnumbers 0
L: 1/4
M: 3/2
N: Derived from Gas0103b-Missa_Princesse_damourettes-Gloria.krn
%%staves [1 2 3 4]
V: 1 clef=treble
V: 2 clef=treble-8
V: 3 clef=treble-8
V: 4 clef=bass
K: C
[V:1] G4G2 | 
[V:2] G2Gc>de- | 
[V:3] z6 | 
[V:4] z6 | 
[V:1] c2>c2B2 | 
[V:2] e/d/c/B/A2zG- | 
[V:3] z6 | 
[V:4] z6 | 
[V:1] A2zG2F | 
[V:2] GFG2A2 | 
[V:3] z6 | 
[V:4] z6 | 
[V:1] ED>CB,A,2 | 
[V:2] G>A B/c/def | 
[V:3] z6 | 
[V:4] z6 | 
[V:1] zA2FE2 | 
[V:2] gf2d2c | 
[V:3] z6 | 
[V:4] z6 | 
[V:1] zd2BA2 | 
[V:2] d>efg2f | 
[V:3] z6 | 
[V:4] z6 | 
[V:1] B2Gc>BA/G/ | 
[V:2] gGc>B A/G/c- | 
[V:3] z6 | 
[V:4] z6 | 
[V:1] A2B2GE | 
[V:2] cd2e2c | 
[V:3] z6 | 
[V:4] z6 | 
[V:1] DE>FG2^F | 
[V:2] BG2BA2 | 
[V:3] z6 | 
[V:4] G,,C,>B,,G,,D,2 | 
[V:1] G4z2 | 
[V:2] G4d2 | 
[V:3] z6 | 
[V:4] E,3D,/C,/B,,2 | 
[V:1] G2E>CDE | 
[V:2] e2c2z2 | 
[V:3] G6- | 
[V:4] C,2zC,B,,C, | 
[V:1] DG2E>FG | 
[V:2] d2ecB2 | 
[V:3] G6 | 
[V:4] G,,2C,>D,E,2 | 
[V:1] A>Bc2GA | 
[V:2] A2A/B/c/d/eA | 
[V:3] c6- | 
[V:4] F,2zF,E,F, | 
[V:1] GA>Gc2A | 
[V:2] ef>gaef | 
[V:3] c6 | 
[V:4] C,F,>E,F,/G,/A,2 | 
[V:1] B2A2zA | 
[V:2] g2f2z2 | 
[V:3] d6- | 
[V:4] G,2D,2G,F, | 
[V:1] Bd>cB/A/B2 | 
[V:2] f>ed>c B/A/G | 
[V:3] d6 | 
[V:4] D,>C, B,,/A,,/G,,3 | 
[V:1] c4GA | 
[V:2] z2g3f | 
[V:3] c6 | 
[V:4] C,4E,F, | 
[V:1] B3A2G | 
[V:2] d>ef2d2 | 
[V:3] Bd2c_B2 | 
[V:4] G,2D,F,G,2 | 
[V:1] A2z2B2 | 
[V:2] zde>fg3/f/ | 
[V:3] A4z2 | 
[V:4] D,3/C,//B,,//A,,2G,,2 | 
[V:1] G2>A2GF | 
[V:2] e/d/e2fed- | 
[V:3] z6 | 
[V:4] C,2zA,,C,D, | 
[V:1] E2DG>FE/D/ | 
[V:2] dcd2BG | 
[V:3] z2B2G2- | 
[V:4] A,,2z2zC,- | 
[V:1] EFED2^C | 
[V:2] c3A3 | 
[V:3] GAGFE2 | 
[V:4] C,A,,C,D,A,,2 | 
[V:1] D3C/B,/A,2 | 
[V:2] FA2G2^F | 
[V:3] D6 | 
[V:4] z6 | 
[V:1] z6 | 
[V:2] G2B2BB- | 
[V:3] z6 | 
[V:4] G,,2>G,,2G,,G,- | 
[V:1] z6 | 
[V:2] B/G/ABA/dB/c | 
[V:3] z6 | 
[V:4] G,D,2F,E,2 | 
[V:1] F2>F2F2 | 
[V:2] d2zdc3/B/ | 
[V:3] A6 | 
[V:4] D,4z2 | 
[V:1] F>GABAB | 
[V:2] A3d>cB | 
[V:3] d6 | 
[V:4] D,>E,F,G,F,G, | 
[V:1] cAB/A/G/F/G2 | 
[V:2] A2d4 | 
[V:3] c2B4 | 
[V:4] A,F,G,2zG, | 
[V:1] z2ABAd | 
[V:2] f>edDFG | 
[V:3] ABAdcB | 
[V:4] D,4z2 | 
[V:1] c>BA2zF | 
[V:2] A>Bcdz2 | 
[V:3] A4A2 | 
[V:4] F,3D,3 | 
[V:1] ED2EFA- | 
[V:2] g2>e2df- | 
[V:3] GB2cA2 | 
[V:4] G,,2G,C,D,3/E,/ | 
[V:1] A/G/F/E/DG2^F | 
[V:2] f/e/d/c/BGA2 | 
[V:3] z6 | 
[V:4] F,2G,E,D,2 | 
[V:1] G4zG | 
[V:2] G2zddd | 
[V:3] G6- | 
[V:4] G,,6 | 
[V:1] GGE>DC2 | 
[V:2] B>GG2zg- | 
[V:3] G6 | 
[V:4] z2C,3C, | 
[V:1] E2E>FGA- | 
[V:2] ggg>f e/d/c | 
[V:3] c6- | 
[V:4] C,2zC,2F,- | 
[V:1] AG2c2B | 
[V:2] Ae>fg3 | 
[V:3] c4d2 | 
[V:4] F,E,C,2G,2 | 
[V:1] c2zCE3/F/ | 
[V:2] ece>fg2 | 
[V:3] c6- | 
[V:4] A,3G,/F,/E,C, | 
[V:1] G>FD2zG | 
[V:2] zGB>cd2 | 
[V:3] c2B4 | 
[V:4] E,>F,G,4 | 
[V:1] FA2G/F/E2 | 
[V:2] df2d2c | 
[V:3] A6- | 
[V:4] D,2z2A,,2 | 
[V:1] D2zd2c | 
[V:2] dfede2 | 
[V:3] A6- | 
[V:4] D,2C,D,A,,2 | 
[V:1] d2dc/B/A2 | 
[V:2] d>efg2^f | 
[V:3] A6 | 
[V:4] D,4D,2 | 
[V:1] zDDDG3/A/ | 
[V:2] g2zddd | 
[V:3] B4G2- | 
[V:4] G,,6 | 
[V:1] BBc>B A/G/F | 
[V:2] g>f e/d/cz2 | 
[V:3] G2A4 | 
[V:4] z6 | 
[V:1] E/GF/ E/D/D2^C | 
[V:2] zcefg3/e/ | 
[V:3] G2>F2E2 | 
[V:4] C,2>D,2E,G, | 
[V:1] D2z2zG | 
[V:2] f2f2e2 | 
[V:3] D4z2 | 
[V:4] A,2>F,2G,E, | 
[V:1] A2BGF2 | 
[V:2] cd2c/B/A2 | 
[V:3] z6 | 
[V:4] F,D,B,,C,D,2 | 
[V:1] GEFDC2 | 
[V:2] GA2G2^F | 
[V:3] z6 | 
[V:4] B,,C,D,B,,A,,2 | 
[V:1] zB,CA,G,2 | 
[V:2] G2z2zg | 
[V:3] z2A2B2 | 
[V:4] G,,2zF,G,E, | 
[V:1] zGA2B2 | 
[V:2] fd>efd3/B/ | 
[V:3] AG2FG2 | 
[V:4] F,G,D,2zG,, | 
[V:1] AG2FG3/F/ | 
[V:2] c/d/BA2G2 | 
[V:3] z6 | 
[V:4] F,G,D,2E,3/D,/ | 
[V:1] E/D/CD>C B,/G,/C | 
[V:2] zAB>AGF | 
[V:3] z2z2zA | 
[V:4] C,/B,,/A,,G,,>A,, B,,/C,/A,, | 
[V:1] B,G,zAB3/A/ | 
[V:2] G>A B/c/AG3/F/ | 
[V:3] B>AGFG3/A/ | 
[V:4] G,,2>D,2B,,G,, | 
[V:1] GFG>A B/c/A | 
[V:2] E/C/Dzd>e^f | 
[V:3] B/c/AG2z2 | 
[V:4] z2z2zD, | 
[V:1] G6 | 
[V:2] g2zde3/d/ | 
[V:3] !fermata!G6- | 
[V:4] E,>D,C,B,,C,2- | 
[V:1] zDE>DCB, | 
[V:2] cBc2GE- | 
[V:3] G6- | 
[V:4] C,G,,C,>D, E,/F,/G, | 
[V:1] C>D!fermata!B,4 ||  
[V:2] E/C/E!fermata!D4 ||  
[V:3] G6 ||  
[V:4] C,2!fermata!G,,4 ||  
[V:1] [M:2/2]z4 | 
[V:2] [M:2/2]G4- | 
[V:3] [M:2/2]z4 | 
[V:4] [M:2/2]G,,4 | 
[V:1] z4 | 
[V:2] G4- | 
[V:3] z4 | 
[V:4] G,,2G,,2 | 
[V:1] G4 | 
[V:2] G4- | 
[V:3] z4 | 
[V:4] C,2B,,C,- | 
[V:1] G>ED2 | 
[V:2] G4 | 
[V:3] z4 | 
[V:4] C,B,,/A,,/B,,2 | 
[V:1] E2DE- | 
[V:2] G4- | 
[V:3] z4 | 
[V:4] z4 | 
[V:1] ED/C/B,2 | 
[V:2] G4- | 
[V:3] z4 | 
[V:4] z4 | 
[V:1] z4 | 
[V:2] G4- | 
[V:3] z4 | 
[V:4] C,2B,,C,- | 
[V:1] z4 | 
[V:2] G4 | 
[V:3] z4 | 
[V:4] C,B,,/A,,/B,,2 | 
[V:1] A2GA- | 
[V:2] c4 | 
[V:3] z4 | 
[V:4] A,,2z2 | 
[V:1] AG/F/E2 | 
[V:2] c2c2 | 
[V:3] z4 | 
[V:4] z4 | 
[V:1] z4 | 
[V:2] d3c | 
[V:3] z4 | 
[V:4] D,>E, F,/G,/A,- | 
[V:1] z4 | 
[V:2] B2A2 | 
[V:3] z4 | 
[V:4] A,G,2^F, | 
[V:1] G>A B/c/d- | 
[V:2] B2G2 | 
[V:3] z4 | 
[V:4] G,2zG,- | 
[V:1] dc2B | 
[V:2] Bcd2 | 
[V:3] z4 | 
[V:4] G,E,D,G, | 
[V:1] c4 | 
[V:2] c4- | 
[V:3] z4 | 
[V:4] C,2z2 | 
[V:1] c2c2 | 
[V:2] c4 | 
[V:3] z4 | 
[V:4] E,2F,2 | 
[V:1] B2Ac- | 
[V:2] z4 | 
[V:3] z4 | 
[V:4] G,2F,A,- | 
[V:1] c/B/A/G/A2 | 
[V:2] c2c2 | 
[V:3] z4 | 
[V:4] A,/G,/F,/E,/F,2 | 
[V:1] D2zG- | 
[V:2] B2GB- | 
[V:3] z4 | 
[V:4] G,2E,2- | 
[V:1] GFEC | 
[V:2] B/c/dGc- | 
[V:3] z4 | 
[V:4] E,D,C,A,, | 
[V:1] D2CG | 
[V:2] cBc2- | 
[V:3] z4 | 
[V:4] G,,2z2 | 
[V:1] Ac2B/A/ | 
[V:2] c2e2 | 
[V:3] z4 | 
[V:4] C,4 | 
[V:1] B4 | 
[V:2] d4 | 
[V:3] G4- | 
[V:4] G,,4- | 
[V:1] z2B2 | 
[V:2] dedg- | 
[V:3] G4- | 
[V:4] G,,4 | 
[V:1] B2B2 | 
[V:2] gf/e/d2 | 
[V:3] G4 | 
[V:4] z2G,,2 | 
[V:1] Ac2B/A/ | 
[V:2] cA2G/F/ | 
[V:3] c4- | 
[V:4] A,,4 | 
[V:1] G>FGA- | 
[V:2] E2z2 | 
[V:3] c4 | 
[V:4] C,2E,F,- | 
[V:1] AG/F/G2 | 
[V:2] z2G2 | 
[V:3] c4 | 
[V:4] F,E,/D,/E,2 | 
[V:1] F4 | 
[V:2] A>BAB | 
[V:3] d4- | 
[V:4] D,4- | 
[V:1] F3G | 
[V:2] A2A/G/F/E/ | 
[V:3] d4 | 
[V:4] D,4 | 
[V:1] ABA2 | 
[V:2] DG2F | 
[V:3] d2c2 | 
[V:4] z4 | 
[V:1] B2G2- | 
[V:2] G4 | 
[V:3] B4 | 
[V:4] G,,4 | 
[V:1] GF/E/F2 | 
[V:2] E2D2 | 
[V:3] A4 | 
[V:4] C,2D,2 | 
[V:1] z2D2 | 
[V:2] zD2G- | 
[V:3] B4- | 
[V:4] G,,2z2 | 
[V:1] D2D2 | 
[V:2] GF/E/D2 | 
[V:3] B4 | 
[V:4] B,,2B,,2 | 
[V:1] E4 | 
[V:2] C2zc- | 
[V:3] G4- | 
[V:4] C,4 | 
[V:1] E2D2 | 
[V:2] cB/A/B2 | 
[V:3] G4- | 
[V:4] C,2G,,2 | 
[V:1] E2D2 | 
[V:2] G>AB2 | 
[V:3] G4 | 
[V:4] C,2B,,2 | 
[V:1] C3D | 
[V:2] E4 | 
[V:3] A4 | 
[V:4] A,,3B,, | 
[V:1] E2E2 | 
[V:2] z2E3/F/ | 
[V:3] G4- | 
[V:4] C,4 | 
[V:1] D4- | 
[V:2] GAB2 | 
[V:3] G4 | 
[V:4] G,,4 | 
[V:1] D2E2- | 
[V:2] A2B2 | 
[V:3] F2G2 | 
[V:4] z4 | 
[V:1] EDC2 | 
[V:2] G4 | 
[V:3] E4 | 
[V:4] C,4 | 
[V:1] B,4 | 
[V:2] z2G2- | 
[V:3] D4- | 
[V:4] G,,4 | 
[V:1] A,4 | 
[V:2] GF/E/FG | 
[V:3] D4 | 
[V:4] z4 | 
[V:1] z2F2 | 
[V:2] A4 | 
[V:3] z4 | 
[V:4] D,4 | 
[V:1] F2F2 | 
[V:2] d2d2 | 
[V:3] z4 | 
[V:4] D,2D,2 | 
[V:1] G3F/E/ | 
[V:2] c2B2 | 
[V:3] z4 | 
[V:4] E,2G,2- | 
[V:1] DEFG | 
[V:2] d3d | 
[V:3] z4 | 
[V:4] G,G,D,2- | 
[V:1] A3G/F/ | 
[V:2] A3B | 
[V:3] z4 | 
[V:4] D,E,F,G, | 
[V:1] E2z2 | 
[V:2] c2de- | 
[V:3] z4 | 
[V:4] A,2G,2- | 
[V:1] G2A2 | 
[V:2] e/d/c/B/Ad- | 
[V:3] z4 | 
[V:4] G,2F,2 | 
[V:1] Bc>BA/G/ | 
[V:2] dcc3/B/ | 
[V:3] z4 | 
[V:4] E,4 | 
[V:1] F>EF2 | 
[V:2] d4 | 
[V:3] A4- | 
[V:4] D,4 | 
[V:1] E4 | 
[V:2] ^c4 | 
[V:3] A4 | 
[V:4] A,,4 | 
[V:1] F>GAB- | 
[V:2] D>EFG | 
[V:3] d4- | 
[V:4] z4 | 
[V:1] BA2B | 
[V:2] D>EFG | 
[V:3] d4 | 
[V:4] z4 | 
[V:1] cA2G | 
[V:2] C>D E/F/G | 
[V:3] c2B2 | 
[V:4] z4 | 
[V:1] c2B2- | 
[V:2] AFG2- | 
[V:3] A2d2- | 
[V:4] z4 | 
[V:1] BAA2- | 
[V:2] G2A2 | 
[V:3] d2c2 | 
[V:4] z2A,,2 | 
[V:1] A2^G2 | 
[V:2] E2e2 | 
[V:3] B4 | 
[V:4] E,4 | 
[V:1] A4 | 
[V:2] c3d/e/ | 
[V:3] A4- | 
[V:4] F,4 | 
[V:1] z2A3/B/ | 
[V:2] f3e/d/ | 
[V:3] A4 | 
[V:4] D,2D,2 | 
[V:1] c2BA- | 
[V:2] c>dfe- | 
[V:3] A4- | 
[V:4] A,,2D,C, | 
[V:1] AG/F/EA- | 
[V:2] ed2c | 
[V:3] A4- | 
[V:4] D,2A,,2 | 
[V:1] AG2^F | 
[V:2] e2d2 | 
[V:3] A4 | 
[V:4] C,2D,2 | 
[V:1] G2z2 | 
[V:2] B3c | 
[V:3] G4- | 
[V:4] E,4 | 
[V:1] B2B/A/G/F/ | 
[V:2] d2z2 | 
[V:3] G4 | 
[V:4] z4 | 
[V:1] E2E3/F/ | 
[V:2] G2GA | 
[V:3] c4- | 
[V:4] C,2C,3/D,/ | 
[V:1] GAGc- | 
[V:2] Gc>de | 
[V:3] c4- | 
[V:4] E,F,C,2 | 
[V:1] c/B/A/G<^FE/ | 
[V:2] A2zA | 
[V:3] c4 | 
[V:4] F,2A,2 | 
[V:1] G4 | 
[V:2] B2Gd- | 
[V:3] d4- | 
[V:4] G,3F,/E,/ | 
[V:1] z2A2 | 
[V:2] dBA2 | 
[V:3] d4- | 
[V:4] D,G,2F, | 
[V:1] B2A2 | 
[V:2] zgfd | 
[V:3] d4 | 
[V:4] G,2D,2 | 
[V:1] c3B/A/ | 
[V:2] e2e2- | 
[V:3] c4- | 
[V:4] A,,3B,, | 
[V:1] G2A2 | 
[V:2] e2e2 | 
[V:3] c4 | 
[V:4] C,2A,,2 | 
[V:1] zG2E | 
[V:2] z2e2 | 
[V:3] B4 | 
[V:4] E,4 | 
[V:1] FA>GF | 
[V:2] c>d e/f/d | 
[V:3] A4- | 
[V:4] z4 | 
[V:1] EDE2 | 
[V:2] cd2c | 
[V:3] A4- | 
[V:4] z4 | 
[V:1] F3D | 
[V:2] d>cA2 | 
[V:3] A4 | 
[V:4] D,4 | 
[V:1] D2zd- | 
[V:2] z2g2 | 
[V:3] B4 | 
[V:4] G,4 | 
[V:1] d/c/B2A/G/ | 
[V:2] g2d2 | 
[V:3] G4 | 
[V:4] G,2G,2 | 
[V:1] A2A2 | 
[V:2] f3e | 
[V:3] z4 | 
[V:4] D,3C, | 
[V:1] d3c | 
[V:2] dg2f | 
[V:3] z4 | 
[V:4] B,,2A,,2 | 
[V:1] B2A2 | 
[V:2] g2zc | 
[V:3] z4 | 
[V:4] G,,G,2F, | 
[V:1] DG2^F | 
[V:2] BGA2 | 
[V:3] z4 | 
[V:4] G,E,D,2 | 
[V:1] G4- | 
[V:2] zG>AB/c/ | 
[V:3] G4- | 
[V:4] E,3D,/C,/ | 
[V:1] G4 | 
[V:2] dedg- | 
[V:3] G4- | 
[V:4] B,,C,B,,G,, | 
[V:1] z2B2 | 
[V:2] ged2 | 
[V:3] G4 | 
[V:4] C,2z2 | 
[V:1] c3B | 
[V:2] c2e2- | 
[V:3] A4- | 
[V:4] z4 | 
[V:1] A3G/F/ | 
[V:2] e2f2 | 
[V:3] A4 | 
[V:4] z4 | 
[V:1] [M:3/2]E4E2 | 
[V:2] [M:3/2]g4c2 | 
[V:3] [M:3/2]G4G2 | 
[V:4] [M:3/2]C,4C,2 | 
[V:1] G4A2- | 
[V:2] B2>c2d2- | 
[V:3] G4F2- | 
[V:4] E,4D,2- | 
[V:1] ABc4 | 
[V:2] d2e4 | 
[V:3] F2E4 | 
[V:4] D,2A,,4 | 
[V:1] B2A4 | 
[V:2] g2f4 | 
[V:3] D6- | 
[V:4] z6 | 
[V:1] d4c2 | 
[V:2] d2e4 | 
[V:3] D2A4 | 
[V:4] z6 | 
[V:1] d4c2 | 
[V:2] d4z2 | 
[V:3] B4A2 | 
[V:4] G,,4F,2 | 
[V:1] B2A4 | 
[V:2] d4A2 | 
[V:3] G4^F2 | 
[V:4] G,2D,4 | 
[V:1] D4F2 | 
[V:2] B4A2 | 
[V:3] G4z2 | 
[V:4] z6 | 
[V:1] G2A4 | 
[V:2] G4F2 | 
[V:3] d6- | 
[V:4] G,,4D,2 | 
[V:1] B4A2 | 
[V:2] G2>D2F2 | 
[V:3] d6 | 
[V:4] B,,2G,,2D,2 | 
[V:1] G4^F2 | 
[V:2] G2D4 | 
[V:3] B2A4 | 
[V:4] z6 | 
[V:1] G2d2c2 | 
[V:2] d4z2 | 
[V:3] G2D2E2 | 
[V:4] G,,4C,2 | 
[V:1] A2G3E | 
[V:2] d2B2G2 | 
[V:3] F2G3A | 
[V:4] D,2E,3F, | 
[V:1] D2A3G | 
[V:2] z2F2GA | 
[V:3] Bcd2B2 | 
[V:4] G,2D,2E,2- | 
[V:1] G4^F2 | 
[V:2] Bcd4 | 
[V:3] G2A4 | 
[V:4] E,4D,2 | 
[V:1] G6- | 
[V:2] B2>c2d2 | 
[V:3] G6- | 
[V:4] E,2>D,2B,,2 | 
[V:1] G6- | 
[V:2] e4d2 | 
[V:3] G6- | 
[V:4] C,4B,,2 | 
[V:1] G6 |]  
[V:2] B6 |]  
[V:3] G6 |]  
[V:4] G,,6 |]  


